X:1
T:5.4 Reverse roll
M:4/4
L:1/1
K:C clef=C1
[G,g]2/3 [E,e]/3 | [E,e]/3 [C,c]2/3 | [Dd]2/3 [B,,B]/3 | [B,,B]/3 [G,,G]2/3 | [G,g]2/3 [E,e]/3 | [E,e]/3 [C,c]2/3 | [G,g]2/3 [E,e]/3 | [E,e]/3 [C,c]2/3 |]
